X:297
T: Nun danket alle Gott!
N: A0646
O: Europa, Mitteleuropa, Deutschland
N: Joh. Krueger 1649
R: Romanze, Ballade, Lied, religioeses Lied
M: 4/4
L: 1/8
K: F
c4 | c3cd2d2 | c4z2A2 | B2A2G2F2 | E4F4 | z4
c4 | c2c2d2d2 | c4z2A2 | B2A2G2F2 | E4F4 | z4
G4 | G2G2A2A2 | G4z2G2 | A2c2c2=B2 | c4z2
c2 | d2c2B2A2 | B4A4 | G2F2F2E2 | F4

@@@ Tune index: 610
